X: 1080
T: Hub-sadâ Bir Güzel
C: Muallim İsmail Hakkı Bey
O: Turkey
F: http://compmusic.upf.edu/node/140
N: zavil--sarki--semai--hub_sada--muallim_ismail_hakki_bey
N: makam= zavil
N: form= sarki
N: usul= semai = 3/4
M: 3/4
L: 1/16
K: C ^9/8f   
Q: 1/4=120
%%MIDI tuningsystem comma53
g8 _b4  | a8 g4  | g8 g2^f2  | ^f8 z4  | a8 c'4  | \
w:  Hub  sa  |  dâ   |  bir  gü  |  zel   |  yak tı   | 
_b8 a4  | g6^f2 g4  | a8 z4  | g8 _b4  | a8 g4  | 
w:  bu   |  gön *  lü  |  mü    |  Hub  sa  |  dâ   | 
g8 g2^f2  | ^f8 z4  | a8 c'4  | _b8 a4  | g8 ^f4  | \
w:  bir  gü  |  zel   |  yak tı   |  bu   |  gön lü  | 
g8 z4  | g8 _b4  | a4 g4 ^f4  | ^f6_7/8e2 e2d2  | 
w:  mü    |  Raks_ e  |  dip   |  nâz  i  | 
g2^f2 _7/8e2d2 c4  | d8 ^f4  | _7/8e8 d4  | \
w:  le   |  çal dı   |  bu   | 
d6c2 c2_1/4B2  | c8 z4  | c8 e4  | d4 ^c4 _7/8B4  | \
w:  gön *  lü  |  mü    |  Raks_ e  |  dip   | 
A8 _B4  | 
w:  nâz  i  | 
d2^c2 _7/8B2A2 G4  | A8 c4  | _1/4B8 G4  | \
w:  le   |  çal dı   |  bu   | 
A8 ^F4  | G8 z4  | G4 g4 g4  | g4 ^f4 g4  | \
w:  gön lü  |  mü    |  ARANAĞME  |   | 
a2g2 ^f4 g4  | 
w:   | 
a8 z4  | g2a2 _b4 a4  | g4 ^f4 _7/8e4  | \
w:   |   |   | 
d2c2 d4 _7/8e4  | g2^f2 _7/8e2d2 c4  | \
w:   |   | 
c4 c4 e4  | 
w:   | 
d2e2 d4 c4  | _1/4B2c2 A4 c4  | _1/4B8 z4  | \
w:   |   |   | 
^c2e2 d4 c4  | _7/8B4 A4 B4  | d2^c2 _7/8B4 A4  | 
w:   |   |   | 
G8 z4  | G4 g4 g4  | g4 ^f4 g4  | a2g2 ^f4 g4  | \
w:   |  ARANAĞME  |   |   | 
a8 z4  | g2a2 _b4 a4  | g4 ^f4 _7/8e4  | 
w:   |   |   | 
d2c2 d4 _7/8e4  | g2^f2 _7/8e2d2 c4  | \
w:   |   | 
c4 c4 e4  | d2e2 d4 c4  | _1/4B2c2 A4 c4  | \
w:   |   |   | 
_1/4B8 z4  | 
w:   | 
^c2e2 d4 c4  | _7/8B4 A4 B4  | d2^c2 _7/8B4 A4  | \
w:   |   |   | 
G8 z4  | |


